svg/u1F532.svg

<svg viewBox="0 0 2600 2760.837" xmlns="http://www.w3.org/2000/svg"><path d="M2222 400q47 0 79.5 33t32.5 78v1845q0 45-33.5 78t-78.5 33h-1845q-45 0-78-32t-33-79v-1845q0-47 32-79t79-32h1845z m-1471 1595q19 13 41 13h1015q28 0 48-19.5t20-47.5v-1016q0-14-4.5-26.5t-14.5-21.5l-179 182q14 14 21.5 32.5t7.5 38.5v606q0 43-31 72.5t-72 29.5h-606q-18 0-35.5-6.5t-30.5-17.5z m1342-1375q-12-9-27.5-14.5t-32.5-5.5h-1467q-42 0-70.5 28.5t-28.5 69.5v1469q0 21 7.5 38.5t21.5 31.5l214-216q-33-33-33-80v-1016q0-49 35-82.5t80-33.5h1015q22 0 39.5 7.5t33.5 18.5z"/></svg>

<svg viewBox="0 0 2600 2760.837" xmlns="http://www.w3.org/2000/svg"><path d="M2222 400q47 0 79.5 33t32.5 78v1845q0 45-33.5 78t-78.5 33H377q-45 0-78-32t-33-79V511q0-47 32-79t79-32h1845zM751 1995q19 13 41 13h1015q28 0 48-19.5t20-47.5V925q0-14-4.5-26.5T1856 877l-179 182q14 14 21.5 32.5t7.5 38.5v606q0 43-31 72.5t-72 29.5H997q-18 0-35.5-6.5T931 1814zM2093 620q-12-9-27.5-14.5T2033 600H566q-42 0-70.5 28.5T467 698v1469q0 21 7.5 38.5T496 2237l214-216q-33-33-33-80V925q0-49 35-82.5t80-33.5h1015q22 0 39.5 7.5T1880 835z"/></svg>
